openmetadata-ui/src/main/resources/ui/src/assets/svg/in-progress.svg

<svg width="361" height="361" viewBox="0 0 361 361" fill="none" xmlns="http://www.w3.org/2000/svg">
<path fill-rule="evenodd" clip-rule="evenodd" d="M0.133789 180.133C0.133789 80.7221 80.7226 0.133301 180.134 0.133301C279.546 0.133301 360.134 80.7221 360.134 180.133C360.134 279.546 279.546 360.133 180.134 360.133C80.7226 360.133 0.133789 279.546 0.133789 180.133ZM180.134 27.8256C96.0165 27.8256 27.8261 96.016 27.8261 180.133C27.8261 264.251 96.0165 332.441 180.134 332.441C264.252 332.441 332.441 264.251 332.441 180.133C332.441 96.016 264.252 27.8256 180.134 27.8256ZM180.134 221.672C203.075 221.672 221.673 203.074 221.673 180.133C221.673 157.192 203.075 138.595 180.134 138.595C157.193 138.595 138.596 157.192 138.596 180.133C138.596 203.074 157.193 221.672 180.134 221.672Z" fill="#7147E8"/>
</svg>

<svg xmlns="http://www.w3.org/2000/svg" width="361" height="361" fill="none"><path fill="#7147E8" fill-rule="evenodd" d="M.134 180.133c0-99.41 80.589-180 180-180 99.412 0 180 80.59 180 180 0 99.413-80.588 180-180 180-99.411 0-180-80.587-180-180Zm180-152.307c-84.117 0-152.308 68.19-152.308 152.307 0 84.118 68.19 152.308 152.308 152.308s152.307-68.19 152.307-152.308c0-84.117-68.189-152.307-152.307-152.307Zm0 193.846c22.941 0 41.539-18.598 41.539-41.539 0-22.941-18.598-41.538-41.539-41.538-22.941 0-41.538 18.597-41.538 41.538 0 22.941 18.597 41.539 41.538 41.539Z" clip-rule="evenodd"/></svg>
